X:1812
T:Ach Gott wie sehr zwingt mich die not
T:"Glogauer Liederbuch" no. 252
C:anon.
O:Germany
B:Glogauer Liederbuch (c. 1480) no. 252
Z:Transcribed by Frank Nordberg - http://www.musicaviva.com
F:http://abc.musicaviva.com/tunes/germany/glg252/glg252-3m.abc
%No barlines in the original
V:1 Program 1 74 %Recorder
V:2 Program 1 68 alto %Oboe
V:3 Program 1 110 bass %Fiddle
M:3/2 %org time signature C.
L:1/8
Q:1/4=264
K:Ddor
V:1
z4 z4 D4|A8 B4|c6 B2 A2 G2|G8 ^F4|G6 A2 B2 c2|
V:2
z4 z4 D,4|F,8 G,4|A,4 C8|B,4 A,8|G,8 G,4|
w:Ach Gott, wie sehr zwingt mich die Not, ich
V:3
z4 z4 A,4|A,4 C4 B,4|A,4 F,8|G,4 D,8|D6 C2 B,2 A,2|
%
V:1
d6 c2 A4|d8 ^c4|d4 B6 A2|A8 ^G4|A12|z4 z4 A4|
V:2
B,8 C4|D4 E8|D8 C4|A,4 B,8|A,12|z4 z4 D4|
w:kann kein Wort nicht spre----chen. Wenn
V:3
G,8 F,4|D,4 A,8|D,4 G,4 A,4|F,4 E,8|F,6 D,2 D,4|z4 z4 D,4|
%
V:1
A6 _B2 c4|_B4 G8| A6 G2 E4|F4 A8|G4 F6 E2|E12|
V:2
C8 A,4|G,8 _B,4|A,8 A,4|D,8 F,4|E,4 D,8|C,12|
w:ich ge-denk ihr M\"und-lein rot hilft mir aus Not:
V:3
F,8 F,4|G,6 F,E, D,4|A,,12|A,12|G,4 B,6 A,B,|C12|
%
V:1
z4 z4 G4|A8 _B4|c6 _B2 A2 G2|F4 E6 D2|D8 ^C4|D12|]
V:2
z4 z4 C,4|F,8 G,4|A,4 C6 _B,2|A,4 G,6 F,2|D,4 E,8|D,12|]
w:das Herz das m\"ocht mir_ bre-----chen.
V:3
z4 z4 C4|C6 _B,2 G,4|F,4 C,4 F,4|z4 C,8|_B,,4 A,,8|A,12|]
W:
W:Ach Gott, wie sehr zwingt mich die Not,
W:ich kann kein Wort nicht sprechen.
W:Wenn ich gedenk ihr M\"undlein rot
W:hilft mir aus Not:
W:das Herz das m\"ocht mir brechen.
W:
W:
W:  From Musica Viva - http://www.musicaviva.com
W:  the Internet center for free sheet music downloads.

